logos/broadcom.svg

<?xml version="1.0" encoding="UTF-8"?>
<svg width="512px" height="73px" viewBox="0 0 512 73" version="1.1" xmlns="http://www.w3.org/2000/svg" preserveAspectRatio="xMidYMid">
    <title>Broadcom</title>
    <g>
        <path d="M114.339293,50.8335934 L101.033581,50.8335934 L101.033581,20.1499414 L113.975543,20.1499414 C117.466657,20.1499414 119.64694,22.4034177 119.64694,25.4575877 C119.64694,28.5117578 117.466657,30.6920404 113.975543,30.6920404 L99.1813386,30.6920404 L99.1813386,39.5639942 L114.339293,39.5639942 C118.41152,39.5639942 120.591803,42.1812205 120.591803,45.2331726 C120.591803,48.7242864 118.265133,50.8335934 114.339293,50.8335934 M121.827222,34.7642672 C126.409586,33.8194041 130.191257,29.7471774 130.191257,23.6410552 C130.191257,17.168965 125.464723,11.2802057 116.229019,11.2802057 L90.7088446,11.2802057 L90.7088446,59.7765228 L117.029713,59.7765228 C126.263199,59.7765228 131.133902,53.9587391 131.133902,46.688173 C131.133902,40.5798329 126.990699,35.564961 121.827222,34.7642672 M161.357321,33.4552104 L150.195073,33.4552104 L150.195073,42.544527 L158.085788,42.544527 L167.609831,59.7760792 L179.460543,59.7760792 L168.554694,41.3068895 C173.791364,40.0714699 179.169986,35.4913238 179.169986,26.9121445 M179.169986,26.9121445 C179.169986,17.8960216 172.990671,11.2797621 162.883297,11.2797621 L140.197712,11.2797621 L140.197712,59.7760792 L150.522448,59.7760792 L150.522448,20.3690787 L161.357321,20.3690787 C165.502742,20.3690787 168.627887,22.8399178 168.627887,26.9121445 C168.627887,30.9843713 165.502742,33.4552104 161.357321,33.4552104 M257.66371,42.471777 L265.224832,21.6049418 L272.788173,42.471777 L257.66371,42.471777 Z M258.75496,11.2802057 L239.995214,59.7765228 L251.772733,59.7765228 L254.826903,51.5610936 L275.622762,51.5610936 L278.603739,59.7765228 L290.383475,59.7765228 L271.696923,11.2802057 L258.75496,11.2802057 Z M318.427499,50.687428 L309.628739,50.687428 L309.628739,20.3675261 L318.427499,20.3675261 C328.388485,20.3675261 333.622938,26.9837856 333.622938,35.5651828 C333.622938,43.780612 328.024735,50.687428 318.427499,50.687428 M318.427499,11.2804275 L299.304003,11.2804275 L299.304003,59.7767446 L318.427499,59.7767446 C333.622938,59.7767446 344.165037,50.1795086 344.165037,35.5651828 C344.165037,20.950857 333.622938,11.2804275 318.427499,11.2804275 M500.584014,11.2704465 L487.866068,31.8311993 L475.148122,11.2704465 L463.734354,11.2704465 L463.734354,59.7756356 L474.061308,59.7756356 L474.061308,28.0739269 L485.177866,44.9794347 C486.450991,46.9113027 489.283362,46.9113027 490.55427,44.9794347 L501.673046,28.0739269 L501.673046,59.7756356 L512,59.7756356 L512,11.2704465 L500.584014,11.2704465 Z M211.911266,51.1964563 C203.325433,51.1964563 196.367603,44.2364086 196.367603,35.6527934 C196.367603,27.0669601 203.325433,20.1069124 211.911266,20.1069124 C220.494881,20.1069124 227.454929,27.0669601 227.454929,35.6527934 C227.454929,44.2364086 220.494881,51.1964563 211.911266,51.1964563 M211.911266,10.0838227 C197.789334,10.0838227 186.342295,21.530861 186.342295,35.6527934 C186.342295,49.7725077 197.789334,61.2195461 211.911266,61.2195461 C226.030981,61.2195461 237.480237,49.7725077 237.480237,35.6527934 C237.480237,21.530861 226.030981,10.0838227 211.911266,10.0838227 M390.632782,43.1735486 C387.982286,47.9555316 382.887566,51.1960127 377.032077,51.1960127 C368.448462,51.1960127 361.488414,44.235965 361.488414,35.6523498 C361.488414,27.0665165 368.448462,20.1086868 377.032077,20.1086868 C382.83877,20.1086868 387.893566,23.2981542 390.561806,28.0158156 L397.814628,20.7652114 C393.174597,14.2997751 385.597948,10.0833791 377.032077,10.0833791 C362.910144,10.0833791 351.465324,21.5304174 351.465324,35.6523498 C351.465324,49.7720641 362.910144,61.2213204 377.032077,61.2213204 C385.644526,61.2213204 393.25888,56.9583467 397.89004,50.4308067 L390.632782,43.1735486 Z M430.867092,51.1964563 C422.281259,51.1964563 415.323429,44.2364086 415.323429,35.6527934 C415.323429,27.0669601 422.281259,20.1069124 430.867092,20.1069124 C439.450707,20.1069124 446.410755,27.0669601 446.410755,35.6527934 C446.410755,44.2364086 439.450707,51.1964563 430.867092,51.1964563 M430.867092,10.0838227 C416.74516,10.0838227 405.298121,21.530861 405.298121,35.6527934 C405.298121,49.7725077 416.74516,61.2195461 430.867092,61.2195461 C444.986806,61.2195461 456.436063,49.7725077 456.436063,35.6527934 C456.436063,21.530861 444.986806,10.0838227 430.867092,10.0838227" fill="#000000"></path>
        <g>
            <ellipse fill="#CC092F" cx="36.0119877" cy="36.011987" rx="36.0119877" ry="36.011987"></ellipse>
            <path d="M67.7420179,45.7382086 C63.6232134,44.0968971 59.8526331,44.6469583 56.0731808,46.9381403 C56.0731808,46.9381403 54.6958099,47.7787579 54.2832641,48.0382626 C52.5221813,49.1428208 50.8609079,50.1897114 49.2639563,50.1897114 C47.7401982,50.1897114 46.240838,49.7816015 45.6064933,46.8338949 C44.6172705,42.2360048 42.2040991,30.9375718 41.1505546,25.3415869 C40.5317358,22.0523101 40.1923836,20.2801373 39.8397234,19.0757696 C39.2186866,16.9598086 38.0830766,15.8086726 36.470599,15.6245796 C36.470599,15.6245796 36.2177483,15.5890918 36.0114754,15.5890918 C35.8074204,15.5890918 35.5279539,15.6290156 35.5279539,15.6290156 C33.9310022,15.8197626 32.8020461,16.9708986 32.1854453,19.0757696 C31.8327852,20.2801373 31.4934329,22.0523101 30.8746142,25.3415869 C29.8210696,30.9375718 27.4078982,42.2360048 26.4186754,46.8338949 C25.7843307,49.7816015 24.2849705,50.1897114 22.7612125,50.1897114 C21.1642608,50.1897114 19.5029875,49.1428208 17.7419046,48.0382626 C17.3293588,47.7787579 15.94977,46.9381403 15.94977,46.9381403 C12.1725357,44.6469583 8.39973735,44.0968971 4.28315081,45.7382086 C3.39373745,46.0930867 2.51771364,46.4905126 1.68374999,46.8919685 C2.25377302,48.6796671 2.96337783,50.4390865 3.79068751,52.0914878 C4.70228076,51.6434542 5.65830364,51.1988961 6.63421855,50.9105576 C8.04042322,50.4957938 9.4821157,50.4736139 10.8794484,50.9416094 C12.2368573,51.3962971 13.445661,52.2014269 14.6500288,52.9577609 C16.9190309,54.3839275 19.4896795,56.0008411 22.7612125,56.0008411 C27.6097352,56.0008411 31.0121294,53.1063662 32.0989438,48.0582245 C32.9417794,44.1456929 34.8093256,35.4112544 36.0092574,29.3871978 C36.0092574,29.3871978 39.0833894,44.1456929 39.924007,48.0582245 C41.0108213,53.1063662 44.4154335,56.0008411 49.2639563,56.0008411 C52.5354892,56.0008411 55.1061378,54.3839275 57.37514,52.9577609 C58.5795077,52.2014269 59.7883114,51.3962971 61.1457203,50.9416094 C62.540835,50.4736139 63.9847455,50.4957938 65.3909502,50.9105576 C66.3668651,51.1988961 67.3214585,51.6439288 68.2330517,52.0919625 C69.0625794,50.4395611 69.7703151,48.6793189 70.3403381,46.8916202 C69.5063745,46.4901643 68.6314313,46.0930867 67.7420179,45.7382086" fill="#FFFFFF"></path>
        </g>
    </g>
</svg>

<svg preserveAspectRatio="xMidYMid" viewBox="0 0 512 73" xmlns="http://www.w3.org/2000/svg">
  <path d="M114.34 50.834h-13.306V20.15h12.942c3.49 0 5.67 2.253 5.67 5.308 0 3.054-2.18 5.234-5.67 5.234H99.18v8.872h15.158c4.073 0 6.253 2.617 6.253 5.67 0 3.49-2.327 5.6-6.253 5.6m7.488-16.07c4.583-.945 8.364-5.017 8.364-11.123 0-6.472-4.726-12.36-13.962-12.36h-25.52v48.496h26.32c9.234 0 14.105-5.818 14.105-13.089 0-6.108-4.143-11.123-9.307-11.924m39.53-1.309h-11.162v9.09h7.89l9.525 17.231h11.85l-10.905-18.47c5.236-1.235 10.615-5.815 10.615-14.394m0 0c0-9.016-6.18-15.632-16.287-15.632h-22.685v48.496h10.324V20.37h10.835c4.146 0 7.27 2.47 7.27 6.543 0 4.072-3.124 6.543-7.27 6.543m96.307 9.017 7.56-20.867 7.564 20.867h-15.124Zm1.091-31.192-18.76 48.497h11.778l3.054-8.216h20.796l2.98 8.216h11.78L271.697 11.28h-12.942Zm59.672 39.407h-8.798v-30.32h8.798c9.961 0 15.196 6.617 15.196 15.198 0 8.216-5.598 15.122-15.196 15.122m0-39.407h-19.123v48.497h19.123c15.196 0 25.738-9.597 25.738-24.212 0-14.614-10.542-24.285-25.738-24.285m182.157-.01-12.718 20.561-12.718-20.56h-11.414v48.505h10.327V28.074l11.117 16.905c1.273 1.932 4.105 1.932 5.376 0l11.119-16.905v31.702H512V11.27h-11.416ZM211.911 51.196c-8.586 0-15.543-6.96-15.543-15.543 0-8.586 6.957-15.546 15.543-15.546 8.584 0 15.544 6.96 15.544 15.546 0 8.583-6.96 15.543-15.544 15.543m0-41.112c-14.122 0-25.569 11.447-25.569 25.569 0 14.12 11.447 25.567 25.57 25.567 14.119 0 25.568-11.447 25.568-25.567 0-14.122-11.449-25.57-25.569-25.57m178.722 33.09c-2.65 4.783-7.745 8.023-13.6 8.023-8.585 0-15.545-6.96-15.545-15.544 0-8.585 6.96-15.543 15.544-15.543 5.807 0 10.862 3.19 13.53 7.907l7.253-7.25c-4.64-6.466-12.217-10.683-20.783-10.683-14.122 0-25.567 11.447-25.567 25.57 0 14.12 11.445 25.568 25.567 25.568 8.613 0 16.227-4.263 20.858-10.79l-7.257-7.257Zm40.234 8.023c-8.586 0-15.544-6.96-15.544-15.543 0-8.586 6.958-15.546 15.544-15.546 8.584 0 15.544 6.96 15.544 15.546 0 8.583-6.96 15.543-15.544 15.543m0-41.112c-14.122 0-25.569 11.447-25.569 25.569 0 14.12 11.447 25.567 25.57 25.567 14.119 0 25.568-11.447 25.568-25.567 0-14.122-11.45-25.57-25.569-25.57"/>
  <circle cx="36.012" cy="36.012" r="36.012" fill="#CC092F"/>
  <path fill="#FFF" d="M67.742 45.738c-4.119-1.641-7.89-1.091-11.669 1.2 0 0-1.377.84-1.79 1.1-1.76 1.105-3.422 2.152-5.019 2.152-1.524 0-3.023-.408-3.658-3.356-.989-4.598-3.402-15.896-4.455-21.492-.62-3.29-.959-5.062-1.311-6.266-.621-2.116-1.757-3.267-3.37-3.451 0 0-.252-.036-.459-.036-.204 0-.483.04-.483.04-1.597.19-2.726 1.342-3.343 3.447-.352 1.204-.692 2.976-1.31 6.266-1.054 5.596-3.467 16.894-4.456 21.492-.635 2.948-2.134 3.356-3.658 3.356-1.597 0-3.258-1.047-5.02-2.152-.412-.26-1.791-1.1-1.791-1.1-3.777-2.291-7.55-2.841-11.667-1.2a41.92 41.92 0 0 0-2.6 1.154 36.323 36.323 0 0 0 2.108 5.2c.911-.449 1.867-.893 2.843-1.181 1.406-.415 2.848-.437 4.245.03 1.358.455 2.567 1.26 3.771 2.017C16.919 54.384 19.49 56 22.761 56c4.849 0 8.251-2.895 9.338-7.943.843-3.912 2.71-12.647 3.91-18.67 0 0 3.074 14.758 3.915 18.67C41.011 53.105 44.415 56 49.264 56c3.271 0 5.842-1.617 8.111-3.043 1.205-.757 2.413-1.562 3.77-2.016 1.396-.468 2.84-.446 4.246-.031.976.288 1.93.733 2.842 1.181a36.079 36.079 0 0 0 2.107-5.2 41.41 41.41 0 0 0-2.598-1.154"/>
</svg>
